tools/download-figma-icons/icons/solid/warm-water.svg

<svg width="24" height="24" viewBox="0 0 24 24" fill="none" xmlns="http://www.w3.org/2000/svg">
<path d="M13.4997 0.667975C13.3181 0.458308 13.0935 0.290149 12.8412 0.174898C12.5888 0.0596474 12.3147 0 12.0373 0C11.7598 0 11.4857 0.0596474 11.2334 0.174898C10.981 0.290149 10.7564 0.458308 10.5748 0.667975C8.94732 2.64043 2.99994 10.8753 2.99994 15.0002C2.99994 17.3871 3.94813 19.6762 5.63592 21.364C7.32372 23.0518 9.61286 24 11.9998 24C14.3867 24 16.6758 23.0518 18.3636 21.364C20.0514 19.6762 20.9996 17.3871 20.9996 15.0002C20.9996 10.8753 15.0522 2.64043 13.4997 0.667975ZM10.3423 18.2851C10.4299 18.3959 10.4844 18.5292 10.4995 18.6696C10.5147 18.8101 10.4899 18.9519 10.428 19.0788C10.3661 19.2058 10.2696 19.3127 10.1496 19.3872C10.0296 19.4617 9.89104 19.5009 9.7498 19.5001C9.63527 19.4998 9.52231 19.4733 9.41961 19.4226C9.31691 19.3719 9.22718 19.2984 9.15731 19.2076C7.53735 17.0851 8.40733 15.6752 9.11231 14.6402C9.8173 13.6052 10.1398 13.0427 9.11231 11.6853C9.04439 11.6073 8.99332 11.5162 8.96229 11.4176C8.93127 11.319 8.92096 11.215 8.93203 11.1122C8.94309 11.0095 8.97528 10.9101 9.02658 10.8203C9.07788 10.7306 9.14718 10.6524 9.23013 10.5907C9.31307 10.529 9.40788 10.4851 9.50859 10.4618C9.6093 10.4385 9.71375 10.4363 9.81536 10.4552C9.91698 10.4742 10.0136 10.514 10.0991 10.5721C10.1846 10.6302 10.2572 10.7053 10.3123 10.7928C11.9248 12.9827 11.0098 14.4152 10.3123 15.4577C9.6148 16.5002 9.37481 17.0101 10.3423 18.2851ZM14.0922 18.2851C14.1798 18.3959 14.2343 18.5292 14.2494 18.6696C14.2646 18.8101 14.2398 18.9519 14.1779 19.0788C14.116 19.2058 14.0195 19.3127 13.8995 19.3872C13.7795 19.4617 13.641 19.5009 13.4997 19.5001C13.3852 19.4998 13.2722 19.4733 13.1695 19.4226C13.0668 19.3719 12.9771 19.2984 12.9072 19.2076C11.2873 17.0851 12.1948 15.6752 12.8622 14.6402C13.5297 13.6052 13.8897 13.0427 12.8997 11.6853C12.8318 11.6073 12.7807 11.5162 12.7497 11.4176C12.7187 11.319 12.7084 11.215 12.7195 11.1122C12.7305 11.0095 12.7627 10.9101 12.814 10.8203C12.8653 10.7306 12.9346 10.6524 13.0175 10.5907C13.1005 10.529 13.1953 10.4851 13.296 10.4618C13.3967 10.4385 13.5012 10.4363 13.6028 10.4552C13.7044 10.4742 13.801 10.514 13.8865 10.5721C13.972 10.6302 14.0446 10.7053 14.0997 10.7928C15.7122 12.9827 14.7972 14.4152 14.0997 15.4577C13.4022 16.5002 13.1247 17.0101 14.0922 18.2851Z" fill="black"/>
</svg>

<svg xmlns="http://www.w3.org/2000/svg" width="24" height="24" fill="none" viewBox="0 0 24 24"><path fill="currentColor" d="M13.5.668a1.935 1.935 0 0 0-2.925 0C8.947 2.64 3 10.875 3 15a9 9 0 0 0 18 0c0-4.125-5.948-12.36-7.5-14.332m-3.158 17.617a.75.75 0 0 1-.922 1.138.75.75 0 0 1-.263-.215c-1.62-2.123-.75-3.533-.045-4.568s1.028-1.597 0-2.955a.75.75 0 1 1 1.2-.892c1.613 2.19.698 3.622 0 4.665-.697 1.042-.937 1.552.03 2.827m3.75 0a.75.75 0 0 1-.923 1.138.75.75 0 0 1-.262-.215c-1.62-2.123-.712-3.533-.045-4.568.668-1.035 1.028-1.597.038-2.955a.75.75 0 1 1 1.2-.892c1.612 2.19.697 3.622 0 4.665-.698 1.042-.975 1.552-.008 2.827"/></svg>
